libs/ui/packages/crypto-icons/src/svg/STORJ.svg

<svg width="24" height="24" viewBox="0 0 24 24" fill="none">
<path d="M18.7332 14.2282C19.0479 14.417 19.2767 14.721 19.3709 15.0757C19.4652 15.4304 19.4175 15.8078 19.238 16.1279C18.8525 16.8044 17.9765 17.0444 17.2872 16.6664C17.2197 16.6297 17.1612 16.5862 17.1012 16.5427L13.4067 18.6307C13.4157 18.6982 13.421 18.7664 13.4217 18.8347C13.4217 18.9149 13.4217 18.9877 13.4067 19.0672C13.2807 19.8322 12.5465 20.3557 11.7672 20.2319C10.9887 20.1082 10.4547 19.3874 10.5807 18.6239L6.86298 16.5209C6.80542 16.5622 6.74611 16.601 6.68523 16.6372C6.62523 16.6664 6.56598 16.7024 6.49923 16.7242C6.14875 16.8646 5.75712 16.8617 5.40877 16.7161C5.06041 16.5705 4.78323 16.2938 4.63698 15.9457C4.34073 15.2257 4.69698 14.4104 5.43123 14.1194V9.91344C5.36382 9.89172 5.29914 9.86227 5.23848 9.82569C5.18286 9.79116 5.12833 9.7549 5.07498 9.71694C4.87286 9.57008 4.71389 9.37164 4.61468 9.14234C4.51546 8.91304 4.47965 8.66131 4.51098 8.41344C4.54418 8.16499 4.64298 7.92986 4.79721 7.73226C4.95144 7.53467 5.15553 7.38173 5.38848 7.28919C5.62306 7.19461 5.87822 7.16272 6.12886 7.19665C6.37949 7.23058 6.61699 7.32915 6.81798 7.48269L10.5725 5.35044C10.565 5.28519 10.5575 5.22744 10.5575 5.16144C10.5575 4.39044 11.2175 3.74994 12.0042 3.74994C12.7902 3.74994 13.4352 4.37544 13.436 5.15394C13.436 5.21994 13.4285 5.27769 13.421 5.34369L17.2047 7.49019C17.3692 7.36969 17.5571 7.28517 17.7564 7.24213C17.9557 7.19909 18.1618 7.19849 18.3613 7.24038C18.5608 7.28226 18.7492 7.36569 18.9144 7.48523C19.0795 7.60477 19.2176 7.75774 19.3197 7.93419C19.7045 8.61069 19.4525 9.46944 18.7625 9.84819C18.6957 9.87669 18.629 9.91344 18.5622 9.93519V14.1487C18.6215 14.1712 18.6785 14.1974 18.7325 14.2282H18.7332ZM18.9935 15.9892C19.0668 15.8682 19.1151 15.7339 19.1357 15.5939C19.1564 15.454 19.1488 15.3114 19.1135 15.1745C19.0782 15.0375 19.0159 14.909 18.9303 14.7965C18.8446 14.6839 18.7373 14.5897 18.6147 14.5192C18.4127 14.4027 18.179 14.3534 17.9471 14.3784C17.7153 14.4033 17.4974 14.5012 17.3247 14.6579L15.6252 13.6904C15.8286 13.2795 15.8745 12.8084 15.7543 12.366C15.6341 11.9235 15.3561 11.5404 14.9727 11.2889C14.925 11.1284 14.8627 10.9725 14.7867 10.8232L17.354 9.39669C17.621 9.64419 17.9967 9.74544 18.3552 9.66669C18.4949 9.63655 18.6271 9.57896 18.7443 9.49728C18.8615 9.4156 18.9613 9.31145 19.038 9.19087C19.1146 9.0703 19.1665 8.9357 19.1906 8.79491C19.2148 8.65411 19.2108 8.50991 19.1787 8.37069C19.0452 7.78869 18.4512 7.43244 17.8587 7.56294C17.7191 7.593 17.5868 7.6505 17.4696 7.7321C17.3524 7.81369 17.2525 7.91776 17.1758 8.03826C17.0992 8.15876 17.0472 8.29329 17.0229 8.43404C16.9986 8.5748 17.0026 8.71897 17.0345 8.85819L14.438 10.3064C13.934 9.71694 12.3312 9.32394 12.3312 9.32394V6.11469C12.4916 6.06859 12.6379 5.9833 12.7571 5.86651C12.8762 5.74971 12.9644 5.60509 13.0137 5.44569C13.0524 5.31865 13.0653 5.18519 13.0519 5.05309C13.0384 4.92099 12.9987 4.79291 12.9352 4.67631C12.8716 4.55971 12.7855 4.45693 12.6818 4.37399C12.5781 4.29104 12.4589 4.22958 12.3312 4.19319C11.7897 4.03344 11.2182 4.32444 11.0547 4.85619C11.0162 4.98318 11.0033 5.11657 11.0169 5.24858C11.0304 5.38059 11.0701 5.50859 11.1336 5.6251C11.1972 5.74162 11.2833 5.84431 11.3869 5.92721C11.4905 6.01011 11.6096 6.07155 11.7372 6.10794V9.38244C11.7372 9.38244 10.8627 9.66594 10.5215 9.94194C10.159 9.95027 9.8034 10.0427 9.48273 10.2119L7.04148 8.83644C7.08262 8.66458 7.07971 8.48513 7.03304 8.31469C6.98637 8.14426 6.89744 7.98836 6.77448 7.86144C6.57568 7.65183 6.30231 7.52894 6.01357 7.5194C5.72483 7.50985 5.44395 7.61441 5.23173 7.81044C5.12664 7.90577 5.04173 8.02122 4.98203 8.14994C4.92233 8.27866 4.88905 8.41804 4.88416 8.55985C4.87926 8.70165 4.90285 8.843 4.95354 8.97553C5.00422 9.10806 5.08096 9.22908 5.17923 9.33144C5.37817 9.5411 5.65166 9.664 5.94052 9.67355C6.22939 9.68309 6.51039 9.57851 6.72273 9.38244L8.92623 10.6192C8.53975 10.9951 8.30156 11.4976 8.25529 12.0347C8.20901 12.5719 8.35773 13.1077 8.67423 13.5442L6.73773 14.6429C6.60351 14.5206 6.4415 14.4329 6.26574 14.3873C6.08997 14.3417 5.90574 14.3396 5.72898 14.3812C5.5894 14.4123 5.45739 14.4708 5.34062 14.5534C5.22384 14.6359 5.12461 14.7408 5.0487 14.862C4.97279 14.9832 4.9217 15.1183 4.8984 15.2594C4.87511 15.4005 4.88006 15.5448 4.91298 15.6839C5.05473 16.2644 5.64873 16.6222 6.24048 16.4834C6.37998 16.4523 6.51192 16.3938 6.62864 16.3113C6.74536 16.2288 6.84455 16.124 6.92045 16.0029C6.99635 15.8818 7.04746 15.7468 7.07081 15.6058C7.09416 15.4648 7.08929 15.3206 7.05648 15.1814L9.12648 14.0099C9.65898 14.4322 10.3542 14.6002 11.0255 14.4682C11.2325 14.5627 11.4455 14.6429 11.663 14.7082V17.7652C11.5159 17.8108 11.3793 17.885 11.261 17.9836C11.1427 18.0822 11.0451 18.2032 10.9737 18.3397C10.9063 18.4724 10.8661 18.6172 10.8554 18.7657C10.8447 18.9141 10.8637 19.0632 10.9115 19.2042C10.9592 19.3452 11.0346 19.4752 11.1332 19.5867C11.2319 19.6981 11.3518 19.7887 11.486 19.8532C11.531 19.8757 11.5752 19.8967 11.627 19.9117C11.6345 19.9117 11.642 19.9192 11.6495 19.9192C12.257 20.1007 12.9035 19.7729 13.0887 19.1767C13.1331 19.0343 13.1486 18.8844 13.1344 18.7359C13.1202 18.5874 13.0766 18.4432 13.0061 18.3118C12.9355 18.1803 12.8396 18.0642 12.7237 17.9702C12.6078 17.8763 12.4744 17.8063 12.3312 17.7644V14.7674C12.3312 14.7674 12.8877 14.7164 13.1472 14.6362C13.871 14.9212 14.699 14.7524 15.2472 14.2072L16.9827 15.2047C16.9294 15.4291 16.9506 15.6648 17.043 15.8761C17.1354 16.0874 17.294 16.263 17.495 16.3762C17.746 16.5191 18.0428 16.5588 18.3225 16.4867C18.6022 16.4146 18.8429 16.2364 18.9935 15.9899V15.9892ZM5.98848 14.9707C6.15348 14.9714 6.30498 15.0569 6.38898 15.1957C6.42684 15.2653 6.44717 15.343 6.44823 15.4222C6.44685 15.5429 6.39768 15.6581 6.3115 15.7426C6.22532 15.8271 6.10917 15.8739 5.98848 15.8729C5.86767 15.8741 5.75132 15.8273 5.66498 15.7428C5.57864 15.6583 5.52937 15.543 5.52798 15.4222C5.52798 15.1724 5.73423 14.9707 5.98848 14.9707ZM12.4872 5.15469C12.4853 5.27531 12.4358 5.39029 12.3496 5.47467C12.2634 5.55906 12.1474 5.60605 12.0267 5.60544C11.906 5.60644 11.7899 5.55956 11.7037 5.47507C11.6175 5.39058 11.5684 5.27537 11.567 5.15469C11.567 4.90494 11.7732 4.70319 12.0267 4.70319C12.2817 4.70319 12.4872 4.90569 12.4872 5.15469ZM18.0957 9.06969C17.9753 9.06952 17.8597 9.02215 17.7737 8.93775C17.6878 8.85334 17.6383 8.73863 17.636 8.61819C17.636 8.36919 17.8422 8.16669 18.0957 8.16669C18.3507 8.16669 18.5562 8.36919 18.5562 8.61819C18.5548 8.739 18.5056 8.85432 18.4192 8.93883C18.3329 9.02335 18.2165 9.07014 18.0957 9.06894V9.06969ZM6.20298 8.20269C6.25512 8.23082 6.30105 8.26916 6.33805 8.31543C6.37504 8.3617 6.40233 8.41495 6.41829 8.472C6.43425 8.52905 6.43855 8.58873 6.43094 8.64748C6.42333 8.70623 6.40396 8.76284 6.37398 8.81394C6.31329 8.91852 6.21366 8.99482 6.09687 9.02616C5.98008 9.0575 5.85563 9.04133 5.75073 8.98119C5.69844 8.95322 5.65235 8.91495 5.61524 8.8687C5.57813 8.82245 5.55076 8.76917 5.53479 8.71206C5.51881 8.65495 5.51456 8.5952 5.52228 8.5364C5.53 8.47761 5.54955 8.42098 5.57973 8.36994C5.64043 8.26536 5.74006 8.18905 5.85685 8.15771C5.97364 8.12637 6.09808 8.14254 6.20298 8.20269ZM18.281 15.0577C18.333 15.0858 18.3789 15.1241 18.4158 15.1703C18.4527 15.2166 18.48 15.2697 18.4959 15.3267C18.5119 15.3836 18.5162 15.4432 18.5087 15.5019C18.5011 15.5606 18.4818 15.6171 18.452 15.6682C18.4094 15.7365 18.3504 15.7929 18.2802 15.8324C18.2101 15.8719 18.1312 15.893 18.0507 15.8939C17.9698 15.8953 17.8899 15.8754 17.8191 15.8361C17.7483 15.7969 17.689 15.7398 17.6472 15.6704C17.6061 15.6016 17.5844 15.523 17.5844 15.4428C17.5844 15.3627 17.6061 15.284 17.6472 15.2152C17.689 15.1459 17.7483 15.0887 17.8191 15.0495C17.8899 15.0103 17.9698 14.9903 18.0507 14.9917C18.1317 14.9943 18.2107 15.0167 18.281 15.0569V15.0577ZM11.567 18.8189C11.5677 18.8132 11.5704 18.808 11.5745 18.8039C11.5947 18.6861 11.6605 18.5808 11.7575 18.511C11.8546 18.4411 11.9753 18.4122 12.0935 18.4304C12.2117 18.4463 12.3188 18.5084 12.3912 18.6032C12.4637 18.698 12.4955 18.8177 12.4797 18.9359C12.4575 19.0452 12.398 19.1434 12.3114 19.2137C12.2248 19.284 12.1165 19.3221 12.005 19.3214C11.9427 19.3188 11.8816 19.3034 11.8254 19.2764C11.7692 19.2494 11.7191 19.2112 11.6781 19.1642C11.6372 19.1172 11.6062 19.0623 11.5871 19.003C11.568 18.9436 11.5611 18.881 11.567 18.8189ZM14.2085 11.8552C14.4291 11.923 14.6219 12.0602 14.7582 12.2464C14.8946 12.4327 14.9672 12.6579 14.9652 12.8887C14.9652 12.9254 14.9577 12.9622 14.9577 12.9982C14.9502 13.0274 14.9502 13.0567 14.9427 13.0852V13.1077C14.9277 13.1729 14.9127 13.2382 14.8827 13.3034C14.8004 13.504 14.6582 13.6743 14.4755 13.7909C14.4305 13.8134 14.393 13.8352 14.3495 13.8569L14.327 13.8644C14.24 13.9048 14.1475 13.9319 14.0525 13.9447L14.015 13.9514C13.9632 13.9514 13.919 13.9589 13.8672 13.9589C13.625 13.9589 13.3902 13.8794 13.1997 13.7332L12.9987 13.8202C12.9372 13.8502 12.8727 13.8719 12.806 13.8862H12.7985C12.3394 14.0091 11.8512 13.9597 11.426 13.7474H11.4185C11.3742 13.7257 11.33 13.7039 11.2925 13.6822L11.2775 13.6747C11.2332 13.6462 11.1965 13.6169 11.1515 13.5877C10.9716 13.6665 10.7771 13.7061 10.5807 13.7039C10.5207 13.7039 10.469 13.7039 10.4172 13.6964L10.3872 13.6889L10.2537 13.6679L10.2387 13.6604C10.1912 13.6516 10.1443 13.6393 10.0985 13.6237C9.97886 13.584 9.86432 13.5304 9.75723 13.4639C9.53378 13.3257 9.35773 13.1227 9.25248 12.8819C9.25248 12.8669 9.24498 12.8594 9.23748 12.8452C9.22877 12.8204 9.21875 12.7961 9.20748 12.7724C9.19864 12.7561 9.19112 12.739 9.18498 12.7214C9.17748 12.6997 9.16323 12.6779 9.16323 12.6562C9.16177 12.6338 9.1567 12.6117 9.14823 12.5909C9.14073 12.5684 9.14073 12.5609 9.13323 12.5324C9.12573 12.5032 9.12573 12.4747 9.11898 12.4454C9.11898 12.4229 9.11148 12.4087 9.11148 12.3944C9.10526 12.3485 9.10275 12.3021 9.10398 12.2557C9.10311 12.1998 9.10562 12.144 9.11148 12.0884C9.11148 12.0667 9.11898 12.0524 9.11898 12.0374C9.12648 11.9939 9.13398 11.9579 9.14148 11.9212C9.14898 11.9062 9.14898 11.8852 9.15648 11.8702C9.16535 11.8305 9.17765 11.7916 9.19323 11.7539C9.20073 11.7389 9.20073 11.7322 9.20823 11.7179C9.22459 11.6727 9.2444 11.6289 9.26748 11.5867L9.27498 11.5717C9.39678 11.3484 9.57396 11.1602 9.7895 11.0252C10.005 10.8902 10.2517 10.8129 10.5057 10.8007C10.5282 10.7932 10.5507 10.7932 10.5807 10.7932C10.67 10.7932 10.7592 10.8007 10.8477 10.8157C10.8852 10.7707 10.922 10.7347 10.9662 10.6912L11.0037 10.6552C11.048 10.6184 11.0847 10.5824 11.1297 10.5532L11.1522 10.5382C11.1815 10.5164 11.2332 10.4804 11.2557 10.4654C11.2782 10.4512 11.315 10.4219 11.3375 10.4144C11.3636 10.4054 11.3885 10.3933 11.4117 10.3784C11.456 10.3559 11.5302 10.3199 11.5745 10.3057L11.612 10.2764C11.9091 10.161 12.2308 10.1236 12.5465 10.1677H12.554C12.614 10.1737 12.6732 10.1827 12.7317 10.1962H12.7392C12.7992 10.2037 12.851 10.2262 12.9102 10.2404L12.9177 10.2479C12.977 10.2689 13.0287 10.2907 13.0805 10.3132L13.0955 10.3207C13.1465 10.3417 13.196 10.3657 13.244 10.3927L13.2515 10.4002C13.2957 10.4227 13.3475 10.4587 13.3925 10.4872L13.4 10.4947C13.4517 10.5239 13.496 10.5599 13.5402 10.5967L13.5477 10.6042C13.7958 10.8127 13.9872 11.0805 14.1042 11.3827V11.3902C14.1192 11.4337 14.1342 11.4847 14.1492 11.5282C14.1492 11.5432 14.1567 11.5574 14.1567 11.5717C14.1687 11.6092 14.1792 11.6489 14.186 11.6879L14.2085 11.8552Z" fill="#2683FF"/>
</svg>

<svg width="24" height="24" viewBox="0 0 24 24" fill="none"><path fill="#2683ff" d="M18.733 14.228a1.41 1.41 0 0 1 .505 1.9 1.45 1.45 0 0 1-1.95.538c-.068-.036-.127-.08-.187-.123l-3.694 2.088q.014.1.015.204c0 .08 0 .153-.015.232a1.43 1.43 0 0 1-1.64 1.165c-.778-.124-1.312-.845-1.186-1.608L6.863 16.52q-.087.062-.178.116c-.06.03-.119.065-.186.087a1.44 1.44 0 0 1-1.862-.778c-.296-.72.06-1.536.794-1.827V9.913a1 1 0 0 1-.193-.087 3 3 0 0 1-.163-.11 1.4 1.4 0 0 1-.564-1.303 1.41 1.41 0 0 1 .877-1.124 1.46 1.46 0 0 1 1.43.194l3.755-2.133c-.008-.065-.016-.123-.016-.189 0-.77.66-1.411 1.447-1.411.786 0 1.431.625 1.432 1.404 0 .066-.008.124-.015.19l3.784 2.146a1.45 1.45 0 0 1 2.115.444 1.397 1.397 0 0 1-.558 1.914c-.066.029-.133.065-.2.087v4.214q.09.033.17.08zm.26 1.761a1.06 1.06 0 0 0-.378-1.47 1.1 1.1 0 0 0-1.29.139l-1.7-.968a1.876 1.876 0 0 0-.652-2.401 3 3 0 0 0-.186-.466l2.567-1.426a1.12 1.12 0 0 0 1.39.1 1.08 1.08 0 0 0 .435-1.126c-.134-.582-.728-.939-1.32-.808a1.08 1.08 0 0 0-.825 1.295l-2.596 1.448c-.504-.59-2.107-.982-2.107-.982v-3.21a1.005 1.005 0 0 0 .72-1.06 1 1 0 0 0-.72-.86c-.541-.16-1.113.13-1.276.662a1 1 0 0 0 .682 1.252v3.274s-.874.284-1.216.56c-.362.008-.718.1-1.038.27L7.04 8.836a1.05 1.05 0 0 0-.267-.975 1.1 1.1 0 0 0-1.792.289 1.06 1.06 0 0 0 .197 1.181 1.1 1.1 0 0 0 1.544.051l2.203 1.237a2.24 2.24 0 0 0-.252 2.925l-1.936 1.099a1.117 1.117 0 0 0-1.69.219 1.08 1.08 0 0 0-.135.822c.142.58.736.938 1.327.8a1.08 1.08 0 0 0 .816-1.303l2.07-1.171c.533.422 1.228.59 1.9.458q.311.143.637.24v3.057a1.17 1.17 0 0 0-.69.575 1.118 1.118 0 0 0 .654 1.572c.007 0 .015.007.022.007.608.182 1.255-.146 1.44-.742a1.12 1.12 0 0 0-.758-1.413v-2.997s.557-.05.816-.13a1.96 1.96 0 0 0 2.1-.43l1.736.998a1.06 1.06 0 0 0 .512 1.171 1.11 1.11 0 0 0 1.499-.386M5.989 14.971a.47.47 0 0 1 .401.225q.057.106.06.226a.456.456 0 0 1-.46.45.456.456 0 0 1-.461-.45c0-.25.206-.451.46-.451m6.5-9.816a.46.46 0 0 1-.461.45.456.456 0 0 1-.46-.45c0-.25.206-.452.46-.452.255 0 .46.203.46.452m5.608 3.915a.46.46 0 0 1-.46-.452c0-.249.206-.451.46-.451.255 0 .46.202.46.451a.456.456 0 0 1-.46.45zM6.203 8.203a.44.44 0 0 1 .171.61.457.457 0 0 1-.623.168.44.44 0 0 1-.171-.611.46.46 0 0 1 .623-.167m12.078 6.855a.44.44 0 0 1 0 .774.48.48 0 0 1-.462.004.444.444 0 0 1 0-.787.46.46 0 0 1 .462.008m-6.714 3.76q0-.008.008-.014a.456.456 0 0 1 .519-.374.45.45 0 0 1 .386.506.48.48 0 0 1-.475.385.46.46 0 0 1-.438-.502m2.642-6.963a1.07 1.07 0 0 1 .756 1.034c0 .036-.007.073-.007.11-.008.028-.008.058-.015.086v.023c-.015.065-.03.13-.06.195a1.06 1.06 0 0 1-.407.488c-.046.022-.083.044-.127.066l-.022.007a1 1 0 0 1-.274.08l-.038.007c-.052 0-.096.008-.148.008-.242 0-.477-.08-.667-.226l-.201.087a1 1 0 0 1-.193.066h-.007c-.46.123-.948.074-1.373-.139h-.008a2 2 0 0 1-.125-.065l-.015-.007c-.045-.029-.082-.058-.127-.087-.18.079-.374.118-.57.116-.06 0-.112 0-.164-.008l-.03-.007-.133-.021-.015-.008a1 1 0 0 1-.14-.036 1.6 1.6 0 0 1-.342-.16 1.3 1.3 0 0 1-.505-.582c0-.015-.007-.023-.015-.037l-.03-.073-.022-.05c-.008-.022-.022-.044-.022-.066a.2.2 0 0 0-.015-.065c-.007-.023-.007-.03-.015-.059-.007-.029-.007-.057-.014-.087 0-.022-.008-.036-.008-.05a1.4 1.4 0 0 1 0-.306c0-.022.008-.037.008-.052l.022-.116c.008-.015.008-.036.015-.05a1 1 0 0 1 .037-.117c.008-.015.008-.022.015-.036a1 1 0 0 1 .06-.131l.007-.015a1.48 1.48 0 0 1 1.23-.771q.033-.01.076-.008.134 0 .267.023c.037-.045.074-.081.118-.125l.038-.036c.044-.037.08-.073.126-.102l.022-.015.104-.073c.022-.014.059-.043.082-.05a.4.4 0 0 0 .074-.037 1.4 1.4 0 0 1 .162-.072l.038-.03c.297-.115.619-.152.934-.108h.008q.09.009.178.028h.007c.06.008.112.03.171.044l.008.008c.059.02.11.043.163.065l.014.008q.077.03.149.072l.008.007c.044.023.095.059.14.087l.008.008a1 1 0 0 1 .14.102l.008.007c.248.209.44.477.556.779v.007l.045.138c0 .015.008.03.008.044a1 1 0 0 1 .029.116z"/></svg>
